!!!!SEGMENT: pl-sa--551-a-ix-31--006_filipowicz-p--mazur.krn
!!!cenid: 18xx:505
!!!COM: Filipowicz, P.
!!!COM-rismID: pe41022175
!!!CDT:
!!!CNT:
!!!OTL: Mazur
!!!PDT:
!!!AGN: Secular; Mazurka
!!!SMS-siglum: PL-SA
!!!SMS-shelfmark: 551/A IX 31
!!!SMS-shelfwork: 006 W
!!!SMS-variant:
!!!SMS-altvar:
!!!NIFC-rismSourceID: 1001069463
!!!NIFC-rismChildID: 1001069463
!!!NIFC-islandoraID: none
!!!URL-pdf-islandora:
!!!URL-scan: https://bc.bdsandomierz.pl/dlibra/publication/1307/edition/1275/content @EN{Scan in the Sandomierz Diocese Digital Library} @PL{Skany w portalu Cyfrowa Biblioteka Diecezjalna w Sandomierzu}
!!!IIIF:
!!!ONB-nifc: Str. 8 (s. 4) – str. 9 (s. 2)
!!!AIN: 1 piano
!!!key:
**kern	**kern
*part1	*part1
*staff2	*staff1
*Ipiano	*Iempty
*I"Piano	*
*I'P-no	*
*clefF4	*clefG2
*k[]	*k[]
*C:	*C:
*M3/8	*M3/8
=1	=1
!	!LO:TX:a:t=Mazur przez P. Filipowicza skomponowany.
8G\L	8.ee\L
8e\ 8c\	.
.	16b\L
8e\J 8c\	16cc\
.	16a\JJ
=2	=2
*rep	*
!	!LO:N:vis=8
8G\L	16g/LL
!	!LO:N:vis=8
.	16g/J
8e\ 8c\	8a/
8e\J 8c\	8g/J
*Xrep	*
=3	=3
!	!LO:TX:a:t=P:problem=mixed beam
8G\L	16ff\LL
.	16ff\J
8f\ 8d\ 8B\	8a/
8f\J 8d\ 8B\	8b/J
=4	=4
8G\L	8cc/ 8g/ 8e/
8e\ 8c\	4ee/ 4cc/ 4g/
8e\J 8c\	.
=5	=5
*rep	*
!	!LO:N:vis=8
8G\L	16ee\LL
!	!LO:N:vis=8
.	16cc\J
8e\ 8c\	8dd\
8e\J 8c\	8ee\J
*Xrep	*
=6	=6
8F\L	16ff\LL
.	16ff\J
8f\ 8d\ 8B\	8gg\
8f\J 8d\ 8B\	8aa\J
!!LO:PB:g=original
=7	=7
8G\L	16dd\LL
.	16cc\JJ
8e\ 8c\	4cc\
8e\J 8c\	.
=8:|!|:	=8:|!|:
8G\L	16dd\LL
.	16dd\J
8d\ 8B\	8b\
8d\J 8B\	8cc\J
=9	=9
*rep	*
8G\L	16dd\LL
.	16dd\J
8d\ 8B\	8ee\
8d\J 8B\	8dd\J
*Xrep	*
=10	=10
8D\L	16dd\LL
.	16aa\J
!LO:SIC:s:=:v:An	!
!LO:SIC:s:=:v:F#	!
8c\ 8A#X\ 8F\	8ff#X\
!LO:SIC:s:=:v:An	!
!LO:SIC:s:=:v:F#	!
8c\J 8A#\ 8F\	8dd\J
=11	=11
8G\L	16b\LL
.	16cc\J
8d\ 8B\	8ee\
8d\J 8B\	8dd\J
=12	=12
*rep	*
!	!LO:N:vis=8
8G\L	8.dd\L
8d\ 8B\	.
.	16b\L
8d\J 8B\	16cc\
.	16dd\JJ
*Xrep	*
=13	=13
8G\L	16ee\LL
.	16ee\J
8e\ 8c\	8cc\
8e\J 8c\	8ee\J
=14	=14
!LO:SIC:s:=:v:D	!LO:N:vis=8
8E\L	8.ff#X\L
!LO:SIC:s:=:v:An	!
!LO:SIC:s:=:v:F#	!
8c\ 8A#X\ 8F\	.
.	16dd\L
!LO:SIC:s:=:v:An	!
!LO:SIC:s:=:v:F#	!
8c\J 8A#\ 8F\	16ee\
.	16ff#\JJ
!!LO:LB:g=original
=15	=15
!LO:TX:a:t=P:4\right:problem	!
4d\ 4B\ 4G\	16gg\LL
.	16ff#X\
.	16aa\
.	16gg\
!	!LO:N:vis=4
8r	16ffn\
!	!LO:TX:b:t=D.C.M.
.	16dd\JJ
==	==
*-	*-
!!!system-decoration: [s1,s2]
!!!EED: Leszek Kubiak
!!!EEV: 2020-12-05
!!!ENC: Marcin Jachim
!!!END: 2020-06-17
!!!YEC: Copyright 2022 Narodowy Instytut Fryderyka Chopina (https://polishscores.org)
!!!YEM: License CC-BY-4.0 (https://creativecommons.org/licenses/by/4.0)
